brandFactory_export/3.Masa/Play_3Masa.svg

<?xml version="1.0" encoding="UTF-8"?>
<svg width="24px" height="24px" viewBox="0 0 24 24" version="1.1" xmlns="http://www.w3.org/2000/svg" xmlns:xlink="http://www.w3.org/1999/xlink">
    <title>3.Masa/Play_3Masa</title>
    <g id="Symbols" stroke="none" stroke-width="1" fill="none" fill-rule="evenodd">
        <g id="3.Masa/Play_3Masa" fill="#5CB615" fill-rule="nonzero">
            <path d="M20.4773109,2.9210084 C18.4739496,0.991596639 15.5596639,0.0134453782 11.8117647,0.0134453782 C8.06386555,0.0134453782 5.14957983,0.991596639 3.14957983,2.92436975 C1.07226891,4.92773109 0.0201680672,7.91932773 0.0201680672,11.8151261 C0.0201680672,15.7109244 1.07226891,18.6991597 3.14957983,20.702521 C5.14957983,22.6319328 8.06386555,23.610084 11.8117647,23.610084 C15.5596639,23.610084 18.4739496,22.6319328 20.4773109,20.702521 C22.5546218,18.6991597 23.610084,15.7109244 23.610084,11.8151261 C23.610084,7.91932773 22.5579832,4.92436975 20.4773109,2.9210084 Z M16.7260504,12.2890756 L8.74285714,16.897479 C8.46386555,17.0588235 8.10756303,16.9613445 7.94621849,16.6823529 C7.89579832,16.594958 7.86890756,16.4941176 7.86890756,16.3932773 L7.86890756,7.17310924 C7.86890756,6.85042017 8.13109244,6.59159664 8.45378151,6.59159664 C8.55462185,6.59159664 8.65546218,6.61848739 8.74285714,6.66890756 L16.7260504,11.2773109 C17.005042,11.4386555 17.0991597,11.794958 16.9378151,12.0739496 C16.887395,12.1647059 16.8168067,12.2352941 16.7260504,12.2890756 L16.7260504,12.2890756 Z" id="Play_3Masa"></path>
        </g>
    </g>
</svg>

<svg width="24" height="24" viewBox="0 0 24 24" xmlns="http://www.w3.org/2000/svg"><path d="M20.477 2.921C18.474.991 15.56.013 11.812.013 8.064.013 5.15.992 3.15 2.924 1.072 4.928.02 7.92.02 11.815s1.052 6.884 3.13 8.888c2 1.929 4.914 2.907 8.662 2.907 3.748 0 6.662-.978 8.665-2.907 2.078-2.004 3.133-4.992 3.133-8.888s-1.052-6.89-3.133-8.894zm-3.75 9.368l-7.984 4.608a.583.583 0 01-.874-.504v-9.22a.582.582 0 01.874-.504l7.983 4.608a.582.582 0 01.212.797.566.566 0 01-.212.215z" fill="#5CB615" fill-rule="nonzero"/></svg>
